X: 64
T: No_68_The_Rain_Is_Coming.krn
N: Derived from No_68_The_Rain_Is_Coming.krn
%%abc-version 2.0
%%abcx-abcm2ps-target-version 5.9.1 (29 Sep 2008)
%%abc-creator hum2abc beta
%%abcx-conversion-date 2019/03/15 08:25:35
%%humdrum-veritas 3611980555
%%humdrum-veritas-data 814896433
%%linebreak <none>
%%barnumbers 0
L: 1/8
M: 3/4
K: G clef=bass
[K:clef=bass][M:3/4]z4z E,/E,/ | 
G,G,/G,/ (3G,D,D,D,2 | 
[M:2/4]C,2G,,C, | 
(3C,G,,G,, G,, z/ G,/ | 
G,3/G,/G,2 | 
D,2C,D, | 
D,/(C,A,,/) A,,C, | 
C,/A,,G,,/ G,,A,, | 
[M:3/4]A,,G,,/G,,/ G,,A,,/A,,/ G,, z | 
[M:5/8]D,/D,/C,/A,,/A,,/ z/ D,/D,/D, | 
[M:3/8]D,/C,/C,/A,,/G,, | 
[M:2/4]A,,G,,/G,,/ G,, z | 
[M:3/4]A,,/G,,G,,/ G,,G,, A,,/G,,/G,, | 
[M:2/4]A,,3/G,,/ G,, z | 
[M:3/4]G,,/G,,G,,/ G,,G,,z2 | 
 [K:Bb] [M:2/4]B,B,/B,/B,2 | 
C/B,3/ G,/F,3/ | 
[M:5/8]G,G,G,G,/B,/(B,/G,/) | 
[M:3/8]F,F,2 | 
[M:2/4]G,3/G,/ B,/F,3/ | 
G,G, G,B,/G,/ | 
B,2F,F, | 
F,2z2 | 
B,CB,2 | 
B,2(3CB,G, | 
[M:5/8]G,B,/G,/F,G,B,/G,/ | 
[M:2/4]F,2z2 | 
[M:3/4]G,3/B,/ F,F,/F,/F,2 | 
G,4z2 | 
[M:3/8]G,B,G, | 
[M:2/4]G,F,/E,/ D,F, | 
[M:3/4]D,2D,D,/C,/ B,, (3D,/C,/B,,/ | 
[M:2/4]B,,B,, B,, z | 
[M:3/4](B,,/G,,/)G,, (B,,/G,,/)G,, (B,,/G,,/)G,, | 
[M:2/4]D,D,(B,,2 | 
G,,)G,,z2 | 
G,,G,,z2 |]  



